!!!COM: Henri Reber
!!!CNT: Francais
!!!TXO: Francais
!!!OTL: A Marie
!!!LYR: Vicor Hugo
!!!ODT: 1858/
!!!ENC: Jacob Pegg
!!!YOR: Romantic French Song 1830-1870, David Tunley, ed., New York: Garland Publishing, Inc., 1995, vol. 3
!!NB: Vocal melody and text only encoded.
!!NB: First instance of melodic material only encoded.
**kern	**silbe
*clef G2	*
*k[b-]	*
*M4/4	*
=3	=3
{4a	{Dieu
8.a	qui
16a	sou-
4a	-rit
8.a	et
16a	qui
=4	=4
(16aq	don-
16ccq	|
2b-)	|
4a}	-ne,}
4r	.
=5	=5
{8a	{Et
8cc	qui
4.dd	vient
8cc	vers
8a	qui
8f	l'at-
=6	=6
2g}	-tend,}
4r	.
{4g#	{Pour-
=7	=7
2a	-vu
8a	que
8cc	vous
8ff	soy-
8ee	-ez
=8	=8
(4.ee	bon-
8dd)	|
8cc}	-ne,}
{8cc	{Se-
8cc#	-ra
8cc#	con-
=9	=9
2dd}	-tent.}
8r	.
{8dd	{se-
8ee	-ra
8cc	con-
=10	=10
2ff}	-tent.}
2r	.
=11	=11
2r	.
4r	.
8r	.
{8a	{Le
=12	=12
4.a	monde
8a	ou\
4a	tout
8.a	e/-
16a	-tin-
=13	=13
(16aq	|
16ccq	|
2b-)	-cel-
4a}	-le,}
4r	.
=14	=14
{8a	{Mais
8cc	ou\
4.dd	rien
8cc	n'est
(12a	en
12c)	|
12a	flam-
=15	=15
2g}	-me/,}
4r	.
{4g#	{Pour-
=16	=16
2a	-vu
8a	que
8cc	vous
8ff	soy-
8ee	-yez
=17	=17
(4.ee	bel-
8dd)	|
8cc	-le,
8cc	Se-
8cc#	-ra
8cc#	char-
=18	=18
2dd}	-me/,}
8r	.
{8dd	{Se-
8ee	-ra
8cc	char-
=19	=19
2ff}	-me/.}
2r	.
=20	=20
2r	.
4r	.
{(8.c	{Mon
16a)	|
=21	=21
4.a	coeur,
8f	dans
(8c	l'om-
8f)	|
8a	-bre a-
8cc	-mou-
=22	=22
(4.cc	-reu-
8b-)	|
4a}	-se}
4r	.
=23	=23
{8a	{Ou\
8cc	l'en-
!!subsequent note value halved
!!to correct editorial oversight
([8ff	-i-
12ff]	|
12a	|
12dd)	-vrent
(8cc	deux
8c)	|
8a	beaux
=24	=24
2g}	yeux,}
4r	.
{4g#	{Pour-
=25	=25
4a	-vu
8a	que
8b-	tu
(8cc	sois
4aa)	|
(16gg	heu-
16ff)	|
=26	=26
(4.ee	-reu-
8dd)	|
8cc	-se,
8cc	Se-
8cc#	-ra
8cc#	joy-
=27	=27
2dd}	-eux,}
8r	.
{8dd	{se-
(12ee	-ra
12cc)	|
12gg	joy-
=28	=28
2ff}	-eux.}
2r	.
*-	*-
